X: 14742
T: Gan Ainm
R: waltz
M: 3/4
K: Gmajor
Bc|d^c de d=c|B^A Bc B=A|GF GA BG|D4 G2|G4 F2|B4 A2|A2 G2 E2|D4 Bc|
d^c de d=c|B^A Bc B=A|GF GA BG|D4 G2|G4 F2|B4 A2|G6|G4||
D2|c4 B2|c4 B2|c4 e2|d4 de|d2 c4|c4 de|c2 B4|B4 D2|
B4 B2|B4 B2|B4 e2|d4 de|d2 c4|c4 G2|z6|G4||
d2|b4 b2|b4 b2|b4 e'2|d'4 d'e'|d'2 e'4|e'4 e'f'|
e'2 b4|b4 d2|g4 b2|b4 b2|g4 e'2||

